!!!!SEGMENT: pl-sa--63-a-ii-3--001-002-dublet_anonim--sinfonia-in-g-andante-dublet.krn
!!!cenid: 17xx:1823b
!!!COM: Anonim
!!!COM-rismid: pe30004985
!!!CDT:
!!!CNT:
!!!OPR: Sinfonia in G
!!!OTL: Andante [dublet]
!!!OMV: 002
!!!PDT:
!!!AGN: Secular
!!!SMS-siglum: PL-SA
!!!SMS-shelfmark: 63/A II 3
!!!SMS-shelfwork: 001-002 M
!!!SMS-variant:
!!!SMS-altvar:
!!!NIFC-rismid: 1001034986
!!!URL-scan: http://bc.bdsandomierz.pl/dlibra/publication/1342/edition/1310/content
!!!ONB-nifc: UWAGA: części Sinfonii: Allegro, Andante, Menuet, Presto
!!!key:
**kern	**dynam	**kern	**dynam	**kern	**dynam	**kern	**dynam	**kern	**kern	**kern	**kern
*part8	*part8	*part7	*part7	*part6	*part6	*part5	*part5	*part4	*part3	*part2	*part1
*group3	*	*group3	*	*group3	*	*group3	*	*group2	*group2	*group1	*group1
*staff8	*	*staff7	*	*staff6	*	*staff5	*	*staff4	*staff3	*staff2	*staff1
*Ibass	*	*Iviola	*	*Ivioln	*	*Ivioln	*	*Iempty	*Iempty	*Ioboe	*Ioboe
*I"Basso	*	*I"Viola	*	*I"Violino: Secondo:	*	*I"Violino: Primo:	*	*I"Cornu Secndo	*I"Cornu: Primo:	*I"Oboe Secondo:	*I"Oboe: Primo:
*I'B	*	*I'Vla	*	*I'Vl 2	*	*I'Vl 1	*	*I'Cor 2	*I'Cor 1	*I'Ob 2	*I'Ob 1
*clefF4	*	*clefC3	*	*clefG2	*	*clefG2	*	*clefG2	*clefG2	*clefG2	*clefG2
*	*	*	*	*	*	*	*	*ITrd-4c-7	*ITrd-4c-7	*	*
*k[]	*	*k[]	*	*k[]	*	*k[]	*	*k[]	*k[]	*k[]	*k[]
*	*	*	*	*	*	*	*	*C:	*C:	*	*
*M2/4	*	*M2/4	*	*M2/4	*	*M2/4	*	*M2/4	*M2/4	*M2/4	*M2/4
*>[A,A,B,B]	*	*>[A,A,B,B]	*	*>[A,A,B,B]	*	*>[A,A,B,B]	*	*>[A,A,B,B]	*>[A,A,B,B]	*>[A,A,B,B]	*>[A,A,B,B]
=1	=1	=1	=1	=1	=1	=1	=1	=1	=1	=1	=1
*>A	*	*>A	*	*>A	*	*>A	*	*>A	*>A	*>A	*>A
*all\right	*	*all\right	*	*all\right	*	*all\right	*	*all\right	*	*	*
!LO:TX:t=P:problem:mixed beam	!	!	!	!	!	!	!	!	!	!	!
!LO:TX:a:t=Andante&colon;	!	!LO:TX:a:t=Andante&colon;	!	!LO:TX:a:t=Andante&colon;	!	!LO:TX:a:t=Andante&colon;	!LO:DY:t=pia&colon;	!LO:TX:a:t=Andante Tacet	!LO:TX:a:t=Andante Tacet&colon;	!LO:TX:a:t=Anda Ta	!LO:TX:a:t=Andante Tacet&colon;
8C/L	p	8e\	p	8cc\	p	8cc\	p	2ryy	2ryy	2ryy	2ryy
8c\	.	4e\	.	4cc\	.	4cc\	.	.	.	.	.
8E\	.	.	.	.	.	.	.	.	.	.	.
8c\J	.	8e\	.	8cc\	.	8cc\	.	.	.	.	.
=2	=2	=2	=2	=2	=2	=2	=2	=2	=2	=2	=2
8G\L	.	8e\L	.	8.cc\L	.	8.cc\L	.	2ryy	2ryy	2ryy	2ryy
8c\	.	8e\	.	.	.	.	.	.	.	.	.
.	.	.	.	32ee\LL	.	(32ee\LL	.	.	.	.	.
.	.	.	.	32dd\JJJ	.	32dd\JJJ)	.	.	.	.	.
8E\	.	8e\	.	8cc\	.	8cc\	.	.	.	.	.
8c\J	.	8e\J	.	8r	.	8r	.	.	.	.	.
=3	=3	=3	=3	=3	=3	=3	=3	=3	=3	=3	=3
!LO:TX:t=P:problem:mixed beam	!	!	!	!	!	!	!	!	!	!	!
8C/L	.	8f\L	.	8a/	.	8ff\	.	2ryy	2ryy	2ryy	2ryy
8c\	.	8f\	.	4a/	.	4ff\	.	.	.	.	.
!LO:SIC:v:s=8F	!	!	!	!	!	!	!	!	!	!	!
8E\	.	8f\	.	.	.	.	.	.	.	.	.
8c\J	.	8f\J	.	8a/	.	8ff\	.	.	.	.	.
=4	=4	=4	=4	=4	=4	=4	=4	=4	=4	=4	=4
8A\L	.	8f\L	.	8.a/L	.	8.ff\L	.	2ryy	2ryy	2ryy	2ryy
8c\	.	8f\	.	.	.	.	.	.	.	.	.
.	.	.	.	32cc/LL	.	(32aa\LL	.	.	.	.	.
.	.	.	.	32b-X/JJJ	.	32gg\JJJ)	.	.	.	.	.
8F\	.	8f\	.	8a/	.	8ff\	.	.	.	.	.
8c\J	.	8f\J	.	8r	.	8r	.	.	.	.	.
=5	=5	=5	=5	=5	=5	=5	=5	=5	=5	=5	=5
4C/	.	4g\	.	(16cc\LL	.	16ee\LL	.	2ryy	2ryy	2ryy	2ryy
.	.	.	.	16dd\)	.	16ff\	.	.	.	.	.
.	.	.	.	(16ee\	.	16gg\	.	.	.	.	.
.	.	.	.	16dd\JJ)	.	16ff\JJ	.	.	.	.	.
!	!	!	!	!LO:TX:t=P:problem:mixed beam	!	!	!	!	!	!	!
8r	.	4r	.	16ee\LL	.	16gg\LL	.	.	.	.	.
.	.	.	.	16g/	.	16ee\	.	.	.	.	.
8A\	.	.	.	16f/	.	16dd\	.	.	.	.	.
.	.	.	.	16e/JJ	.	16cc\JJ	.	.	.	.	.
=6	=6	=6	=6	=6	=6	=6	=6	=6	=6	=6	=6
4F\	.	4f\	.	8a/	.	16dd\LL	.	2ryy	2ryy	2ryy	2ryy
.	.	.	.	.	.	16ee\	.	.	.	.	.
.	.	.	.	8r	.	16ff\	.	.	.	.	.
.	.	.	.	.	.	16ee\JJ	.	.	.	.	.
8r	.	8r	.	16a/LL	.	16ff\LL	.	.	.	.	.
.	.	.	.	16f/	.	16dd\	.	.	.	.	.
8G\	.	8F/	.	16e/	.	16cc\	.	.	.	.	.
.	.	.	.	16d/JJ	.	16b\JJ	.	.	.	.	.
!	!	!	!	!LO:LB:g=original	!	!	!	!	!	!	!
=7	=7	=7	=7	=7	=7	=7	=7	=7	=7	=7	=7
!LO:TX:t=P:problem:mixed beam	!	!	!	!	!	!	!	!	!	!	!
8C/L	.	8E/	.	8c/	.	8c/	.	2ryy	2ryy	2ryy	2ryy
8c\	.	4E/	.	4c/	.	4c/	.	.	.	.	.
8E\	.	.	.	.	.	.	.	.	.	.	.
8c\J	.	8E/	.	8c/	.	8c/	.	.	.	.	.
!LO:LB:g=original	!	!	!	!	!	!	!	!	!	!	!
=8	=8	=8	=8	=8	=8	=8	=8	=8	=8	=8	=8
8G\L	.	8E/L	.	8.c/L	.	8.c/L	.	2ryy	2ryy	2ryy	2ryy
8c\	.	8E/	.	.	.	.	.	.	.	.	.
.	.	.	.	32e/LL	.	(32e/LL	.	.	.	.	.
.	.	.	.	32d/JJJ	.	32d/JJJ)	.	.	.	.	.
8E\	.	8E/	.	8c/	.	8c/	.	.	.	.	.
8c\J	.	8E/J	.	8r	.	8r	.	.	.	.	.
!	!	!LO:LB:g=original	!	!	!	!	!	!	!	!	!
=9	=9	=9	=9	=9	=9	=9	=9	=9	=9	=9	=9
!LO:TX:t=P:problem:mixed beam	!	!	!	!	!	!	!	!	!	!	!
8C/L	.	8F/L	.	8A/	.	8f/	.	2ryy	2ryy	2ryy	2ryy
8c\	.	8F/	.	4A/	.	4f/	.	.	.	.	.
8F\	.	8F/	.	.	.	.	.	.	.	.	.
8c\J	.	8F/J	.	8A/	.	8f/	.	.	.	.	.
!	!	!	!	!	!	!LO:LB:g=original	!	!	!	!	!
=10	=10	=10	=10	=10	=10	=10	=10	=10	=10	=10	=10
8A\L	.	8F/L	.	8A/L	.	8.f/L	.	2ryy	2ryy	2ryy	2ryy
8c\	.	8F/	.	16c/L	.	.	.	.	.	.	.
.	.	.	.	16B-X/JJ	.	32a/LL	.	.	.	.	.
.	.	.	.	.	.	32g/JJJ	.	.	.	.	.
8F\	.	8F/	.	8A/	.	8f/	.	.	.	.	.
8c\J	.	8F/J	.	8r	.	8r	.	.	.	.	.
=11	=11	=11	=11	=11	=11	=11	=11	=11	=11	=11	=11
!LO:TX:t=P:problem:mixed beam	!	!	!	!	!	!	!	!	!	!	!
8C/L	.	4r	.	8cc\	.	16e/LL	.	2ryy	2ryy	2ryy	2ryy
.	.	.	.	.	.	16g/	.	.	.	.	.
8c\J	.	.	.	4cc\	.	16cc/	.	.	.	.	.
.	.	.	.	.	.	16ee/JJ	.	.	.	.	.
8E\L	.	8r	.	.	.	8gg\	.	.	.	.	.
8c\J	.	8e\	.	8cc\	.	8r	.	.	.	.	.
=12	=12	=12	=12	=12	=12	=12	=12	=12	=12	=12	=12
4F\	.	4f\	.	8a\	.	16f/LL	.	2ryy	2ryy	2ryy	2ryy
.	.	.	.	.	.	16a/	.	.	.	.	.
.	.	.	.	4cc\	.	16cc/	.	.	.	.	.
.	.	.	.	.	.	16ff/JJ	.	.	.	.	.
8r	.	8r	.	.	.	8aa\	.	.	.	.	.
!	!	!	!	!	!	!LO:N:vis=8	!	!	!	!	!
8F#X\	.	8A/	.	8cc\	.	16r	.	.	.	.	.
.	.	.	.	.	.	16dd\	.	.	.	.	.
=13	=13	=13	=13	=13	=13	=13	=13	=13	=13	=13	=13
8G\L	.	4G/	.	4e/	.	(4cc\	.	2ryy	2ryy	2ryy	2ryy
8D\J	.	.	.	.	.	.	.	.	.	.	.
!LO:TX:t=P:problem:mixed beam	!	!	!	!	!	!	!	!	!	!	!
8GG/L	.	8r	.	8d/L	.	8b\)	.	.	.	.	.
8F#X\J	.	8A/	.	16r	.	16r	.	.	.	.	.
.	.	.	.	16e/Jk	.	16cc\	.	.	.	.	.
=14	=14	=14	=14	=14	=14	=14	=14	=14	=14	=14	=14
8G\L	.	4G/	.	4e/	.	4cc\	.	2ryy	2ryy	2ryy	2ryy
8D\J	.	.	.	.	.	.	.	.	.	.	.
!LO:TX:t=P:problem:mixed beam	!	!	!	!	!	!	!	!	!	!	!
8GG/L	.	8r	.	8d/	.	8b\	.	.	.	.	.
8D\J	.	8F#X/	.	8r	.	8r	.	.	.	.	.
=15	=15	=15	=15	=15	=15	=15	=15	=15	=15	=15	=15
!LO:TX:t=P:problem:mixed beam	!	!	!	!	!	!	!	!	!	!	!
8GG/L	.	4G/	.	16r	.	8dd\	.	2ryy	2ryy	2ryy	2ryy
.	.	.	.	16b/LL|	.	.	.	.	.	.	.
8G\J	.	.	.	(16g/	.	4dd\	.	.	.	.	.
.	.	.	.	16b/JJ)	.	.	.	.	.	.	.
8BB\L	.	4r	.	16r	.	.	.	.	.	.	.
.	.	.	.	16g/LL|	.	.	.	.	.	.	.
8G\J	.	.	.	(16B/	.	8dd\	.	.	.	.	.
.	.	.	.	16g/JJ)	.	.	.	.	.	.	.
!LO:LB:g=original	!	!	!	!	!	!	!	!	!	!	!
=16	=16	=16	=16	=16	=16	=16	=16	=16	=16	=16	=16
*	*	*	*	*	*	*Xtuplet	*	*	*	*	*
!	!	!LO:TX:a:t=1	!	!	!	!	!	!	!	!	!
8D\L	.	2r	.	4b/	.	24dd\LL	.	2ryy	2ryy	2ryy	2ryy
.	.	.	.	.	.	24bb\	.	.	.	.	.
.	.	.	.	.	.	24aa\JJ	.	.	.	.	.
8G\	.	.	.	.	.	24gg\LL	.	.	.	.	.
.	.	.	.	.	.	24ff#X\	.	.	.	.	.
.	.	.	.	.	.	24ee\JJ	.	.	.	.	.
8BB\	.	.	.	16r	.	8dd\	.	.	.	.	.
.	.	.	.	16g/LL|	.	.	.	.	.	.	.
8G\J	.	.	.	(16B/	.	8r	.	.	.	.	.
.	.	.	.	16g/JJ)	.	.	.	.	.	.	.
!	!	!	!	!LO:LB:g=original	!	!	!	!	!	!	!
=17	=17	=17	=17	=17	=17	=17	=17	=17	=17	=17	=17
8D\L	.	4f#X\	.	8a/	.	8aa\	.	2ryy	2ryy	2ryy	2ryy
8d\	.	.	.	4a/	.	4cc\	.	.	.	.	.
8F#X\	.	4r	.	.	.	.	.	.	.	.	.
!	!	!	!	!LO:N:vis=8.	!	!	!	!	!	!	!
8d\J	.	.	.	16.a/LL	.	16.cc\LL	.	.	.	.	.
!	!	!	!	!LO:N:vis=16	!	!	!	!	!	!	!
.	.	.	.	32b/JJk	.	32dd\JJk	.	.	.	.	.
!	!	!LO:LB:g=original	!	!	!	!LO:LB:g=original	!	!	!	!	!
=18	=18	=18	=18	=18	=18	=18	=18	=18	=18	=18	=18
!	!	!LO:TX:a:t=1	!	!	!	!	!	!	!	!	!
.	.	.	.	.	.	8qqdd/	.	.	.	.	.
8A\L	.	2r	.	8a/L	.	(8cc\	.	2ryy	2ryy	2ryy	2ryy
!	!	!	!	!LO:TUP:b:problem:klamra łukowa	!	!	!	!	!	!	!
8d\	.	.	.	24g/L	.	4b\)	.	.	.	.	.
.	.	.	.	24f#X/	.	.	.	.	.	.	.
.	.	.	.	24e/JJ	.	.	.	.	.	.	.
8F#X\	.	.	.	8d/L	.	.	.	.	.	.	.
8d\J	.	.	.	8c/J	.	8a\	.	.	.	.	.
=19	=19	=19	=19	=19	=19	=19	=19	=19	=19	=19	=19
!LO:TX:t=P:problem:mixed beam	!	!	!	!	!	!	!	!	!	!	!
8GG/L	.	4d\	.	16r	.	24b\LL	.	2ryy	2ryy	2ryy	2ryy
.	.	.	.	.	.	24cc\	.	.	.	.	.
.	.	.	.	16b/LL|	.	.	.	.	.	.	.
.	.	.	.	.	.	24dd\JJ	.	.	.	.	.
8G\	.	.	.	(16g/	.	4dd\	.	.	.	.	.
.	.	.	.	16b/JJ)	.	.	.	.	.	.	.
8BB\	.	4r	.	16r	.	.	.	.	.	.	.
.	.	.	.	16d/LL	.	.	.	.	.	.	.
8G\J	.	.	.	16B/	.	8dd\	.	.	.	.	.
.	.	.	.	16d/JJ	.	.	.	.	.	.	.
=20	=20	=20	=20	=20	=20	=20	=20	=20	=20	=20	=20
!	!	!LO:TX:a:t=1	!	!	!	!	!	!	!	!	!
8D\L	.	2r	.	4b/	.	24dd\LL	.	2ryy	2ryy	2ryy	2ryy
.	.	.	.	.	.	24bb\	.	.	.	.	.
.	.	.	.	.	.	24aa\JJ	.	.	.	.	.
8G\	.	.	.	.	.	24gg\LL	.	.	.	.	.
.	.	.	.	.	.	24ff#X\	.	.	.	.	.
.	.	.	.	.	.	24ee\JJ	.	.	.	.	.
8BB\	.	.	.	16r	.	8dd\	.	.	.	.	.
.	.	.	.	16g/LL	.	.	.	.	.	.	.
8G\J	.	.	.	16B/	.	8r	.	.	.	.	.
.	.	.	.	16g/JJ	.	.	.	.	.	.	.
=21	=21	=21	=21	=21	=21	=21	=21	=21	=21	=21	=21
8D\L	.	4f#X\	.	8a/	.	8aa 8cc\	.	2ryy	2ryy	2ryy	2ryy
8d\	.	.	.	4a/	.	4cc\	.	.	.	.	.
8F#X\	.	4r	.	.	.	.	.	.	.	.	.
8d\J	.	.	.	16.a/LL	.	16.cc\LL	.	.	.	.	.
.	.	.	.	32b/JJk	.	32dd\JJk	.	.	.	.	.
=22	=22	=22	=22	=22	=22	=22	=22	=22	=22	=22	=22
!	!	!LO:TX:a:t=1	!	!	!	!	!	!	!	!	!
.	.	.	.	.	.	8qqdd/	.	.	.	.	.
8A\L	.	2r	.	8a/L	.	8cc\	.	2ryy	2ryy	2ryy	2ryy
8d\	.	.	.	16g/L	.	4b\	.	.	.	.	.
.	.	.	.	32f#X/L	.	.	.	.	.	.	.
.	.	.	.	32e/JJJ	.	.	.	.	.	.	.
8F#X\	.	.	.	8d/L	.	.	.	.	.	.	.
8d\J	.	.	.	8c/J	.	8a/	.	.	.	.	.
!LO:LB:g=original	!	!	!	!	!	!	!	!	!	!	!
=23	=23	=23	=23	=23	=23	=23	=23	=23	=23	=23	=23
8GG/L	.	8G/	.	8B/	.	8g/	.	2ryy	2ryy	2ryy	2ryy
8G\	.	8r	.	8r	.	8r	.	.	.	.	.
8B\	.	8g\	.	8dd\	.	8dd\	.	.	.	.	.
8G\J	.	8r	.	8r	.	8r	.	.	.	.	.
=24	=24	=24	=24	=24	=24	=24	=24	=24	=24	=24	=24
8c\L	.	8g\	.	8ee\	.	8ee\	.	2ryy	2ryy	2ryy	2ryy
8A\	.	8r	.	8r	.	8r	.	.	.	.	.
8d\	.	8cc\	.	8ff#X\	.	8ff#X\	.	.	.	.	.
8G\J	.	8r	.	8r	.	8r	.	.	.	.	.
!	!	!	!	!LO:SIC:v:custos gg	!	!	!	!	!	!	!
!	!	!	!	!LO:LB:g=original	!	!	!	!	!	!	!
=25	=25	=25	=25	=25	=25	=25	=25	=25	=25	=25	=25
8e\L	.	8b\	.	8gg\	.	8gg\	.	2ryy	2ryy	2ryy	2ryy
8G\	.	8r	.	8r	.	8r	.	.	.	.	.
8F#X\	.	8dd\	.	8aa\	.	8aa\	.	.	.	.	.
8D\J	.	8r	.	8r	.	8r	.	.	.	.	.
!	!	!	!	!	!	!LO:LB:g=original	!	!	!	!	!
=26	=26	=26	=26	=26	=26	=26	=26	=26	=26	=26	=26
*	*	*	*	*Xtuplet	*	*	*	*	*	*	*
8G\	.	8dd\	.	24bb\LL	.	24bb\LL	.	2ryy	2ryy	2ryy	2ryy
.	.	.	.	24ddd\	.	24ddd\	.	.	.	.	.
.	.	.	.	24ccc\JJ	.	24ccc\JJ	.	.	.	.	.
8r	.	8r	.	24bb\LL	.	24bb\LL	.	.	.	.	.
.	.	.	.	24aa\	.	24aa\	.	.	.	.	.
.	.	.	.	24gg\JJ	.	24gg\JJ	.	.	.	.	.
4r	.	4r	.	24ff#X\LL	.	24ff#X\LL	.	.	.	.	.
.	.	.	.	24ee\	.	24ee\	.	.	.	.	.
.	.	.	.	24dd\JJ	.	24dd\JJ	.	.	.	.	.
.	.	.	.	24cc\LL	.	24cc\LL	.	.	.	.	.
.	.	.	.	24b\	.	24b\	.	.	.	.	.
.	.	.	.	24a\JJ	.	24a\JJ	.	.	.	.	.
!	!	!LO:LB:g=original	!	!	!	!	!	!	!	!	!
=27	=27	=27	=27	=27	=27	=27	=27	=27	=27	=27	=27
8r	.	8r	.	8.g/L	.	8.g/L	.	2ryy	2ryy	2ryy	2ryy
8BB/L	.	16d\LL	.	.	.	.	.	.	.	.	.
.	.	16g\JJ	.	16a/Jk	.	16a/Jk	.	.	.	.	.
8C/	.	8g\L	.	4a/	.	4a/	.	.	.	.	.
8D/J	.	8f#X\J	.	.	.	.	.	.	.	.	.
=28	=28	=28	=28	=28	=28	=28	=28	=28	=28	=28	=28
4G\	.	4g\	.	24bb\LL	.	24bb\LL	.	2ryy	2ryy	2ryy	2ryy
.	.	.	.	24ddd\	.	24ddd\	.	.	.	.	.
.	.	.	.	24ccc\JJ	.	24ccc\JJ	.	.	.	.	.
.	.	.	.	24bb\LL	.	24bb\LL	.	.	.	.	.
.	.	.	.	24aa\	.	24aa\	.	.	.	.	.
.	.	.	.	24gg\JJ	.	24gg\JJ	.	.	.	.	.
4r	.	4r	.	24ff#X\LL	.	24ff#X\LL	.	.	.	.	.
.	.	.	.	24ee\	.	24ee\	.	.	.	.	.
.	.	.	.	24dd\JJ	.	24dd\JJ	.	.	.	.	.
.	.	.	.	24cc\LL	.	24cc\LL	.	.	.	.	.
.	.	.	.	24b\	.	24b\	.	.	.	.	.
.	.	.	.	24a\JJ	.	24a\JJ	.	.	.	.	.
=29	=29	=29	=29	=29	=29	=29	=29	=29	=29	=29	=29
8r	.	8r	.	8.g/L	.	8.g/L	.	2ryy	2ryy	2ryy	2ryy
!	!	!LO:TX:t=P:problem:mixed beam	!	!	!	!	!	!	!	!	!
8E\L	.	16B/LL	.	.	.	.	.	.	.	.	.
.	.	16g\JJ	.	16a/Jk	.	16a/Jk	.	.	.	.	.
8C\	.	8g\L	.	4a/	.	4a/	.	.	.	.	.
8D\J	.	8f#X\J	.	.	.	.	.	.	.	.	.
=30	=30	=30	=30	=30	=30	=30	=30	=30	=30	=30	=30
!LO:TX:t=P:problem:mixed beam	!	!	!	!	!	!	!	!	!	!	!
8GG/L	.	8d\	.	8B/	.	8g/	.	2ryy	2ryy	2ryy	2ryy
8G\	.	8r	.	8r	.	8r	.	.	.	.	.
8D\	.	8B/	.	8d/	.	8g/	.	.	.	.	.
8G\J	.	8r	.	8r	.	8r	.	.	.	.	.
!LO:LB:g=original	!	!	!	!LO:LB:g=original	!	!	!	!	!	!	!
=31	=31	=31	=31	=31	=31	=31	=31	=31	=31	=31	=31
8D\L	.	4G/	.	4B/	.	4g/	.	2ryy	2ryy	2ryy	2ryy
8G\	.	.	.	.	.	.	.	.	.	.	.
8BB\	.	4r	.	4r	.	4r	.	.	.	.	.
!LO:TX:a:t=31&colon;	!	!LO:TX:a:t=31&colon;:problem:na kresce taktowej	!	!LO:TX:a:t=31&colon;	!	!LO:TX:a:t=31&colon;	!	!	!	!	!
8G\J	.	.	.	.	.	.	.	.	.	.	.
!	!	!	!	!	!	!LO:LB:g=original	!	!	!	!	!
=32:|!|:	=32:|!|:	=32:|!|:	=32:|!|:	=32:|!|:	=32:|!|:	=32:|!|:	=32:|!|:	=32:|!|:	=32:|!|:	=32:|!|:	=32:|!|:
*>B	*	*>B	*	*>B	*	*>B	*	*>B	*>B	*>B	*>B
!LO:TX:t=P:problem:mixed beam	!	!LO:TX:a:t=4	!	!	!	!	!	!	!	!	!
!	!	!LO:N:vis=00	!	!	!	!	!	!	!	!	!
8GG/L	.	0r	.	24d/LL	.	8gg\	.	2ryy	2ryy	2ryy	2ryy
!	!	!	!	!	!LO:DY:t=pia&colon;	!	!	!	!	!	!
.	.	.	.	24g/	p	.	.	.	.	.	.
.	.	.	.	24a/JJ	.	.	.	.	.	.	.
8G\	.	.	.	24b/LL	.	4gg\	.	.	.	.	.
.	.	.	.	24cc/	.	.	.	.	.	.	.
.	.	.	.	24dd/JJ	.	.	.	.	.	.	.
8BB/	.	.	.	24gg\LL	.	.	.	.	.	.	.
.	.	.	.	24dd\	.	.	.	.	.	.	.
.	.	.	.	24ee\JJ	.	.	.	.	.	.	.
8G\J	.	.	.	24dd\LL	.	8gg\	.	.	.	.	.
.	.	.	.	24cc\	.	.	.	.	.	.	.
.	.	.	.	24b\JJ	.	.	.	.	.	.	.
=33	=33	=33	=33	=33	=33	=33	=33	=33	=33	=33	=33
8D\L	.	.	.	24B/LL	.	8.gg\L	.	2ryy	2ryy	2ryy	2ryy
.	.	.	.	24g/	.	.	.	.	.	.	.
.	.	.	.	24a/JJ	.	.	.	.	.	.	.
8G\	.	.	.	24b\LL	.	.	.	.	.	.	.
.	.	.	.	24cc\	.	.	.	.	.	.	.
.	.	.	.	.	.	32bb\LL	.	.	.	.	.
.	.	.	.	24dd\JJ	.	.	.	.	.	.	.
.	.	.	.	.	.	32aa\JJJ	.	.	.	.	.
!	!	!	!	!LO:TX:t=P:problem:mixed beam	!	!	!	!	!	!	!
8BB\	.	.	.	24gg/LL	.	8gg\	.	.	.	.	.
.	.	.	.	24d/	.	.	.	.	.	.	.
.	.	.	.	24e/JJ	.	.	.	.	.	.	.
8G\J	.	.	.	24d/LL	.	8r	.	.	.	.	.
.	.	.	.	24c/	.	.	.	.	.	.	.
.	.	.	.	24B/JJ	.	.	.	.	.	.	.
=34	=34	=34	=34	=34	=34	=34	=34	=34	=34	=34	=34
!LO:TX:t=P:problem:mixed beam	!	!	!	!LO:TX:t=P:problem:mixed beam	!	!	!	!	!	!	!
8GG/L	.	.	.	24b\LL	.	8ddd\	.	2ryy	2ryy	2ryy	2ryy
.	.	.	.	24G/	.	.	.	.	.	.	.
.	.	.	.	24A/JJ	.	.	.	.	.	.	.
8Fn\J	.	.	.	24B/LL	.	4dd\	.	.	.	.	.
.	.	.	.	24c/	.	.	.	.	.	.	.
.	.	.	.	24d/JJ	.	.	.	.	.	.	.
8BB\L	.	.	.	24g/LL	.	.	.	.	.	.	.
.	.	.	.	24d/	.	.	.	.	.	.	.
.	.	.	.	24e/JJ	.	.	.	.	.	.	.
8F\J	.	.	.	24d/LL	.	8dd\	.	.	.	.	.
.	.	.	.	24c/	.	.	.	.	.	.	.
.	.	.	.	24B/JJ	.	.	.	.	.	.	.
=35	=35	=35	=35	=35	=35	=35	=35	=35	=35	=35	=35
8D\L	.	.	.	24G/LL	.	8.dd\L	.	2ryy	2ryy	2ryy	2ryy
.	.	.	.	24B/	.	.	.	.	.	.	.
.	.	.	.	24c/JJ	.	.	.	.	.	.	.
8F\	.	.	.	24d/LL	.	.	.	.	.	.	.
.	.	.	.	24e/	.	.	.	.	.	.	.
.	.	.	.	.	.	16cc\Jk	.	.	.	.	.
.	.	.	.	24fn/JJ	.	.	.	.	.	.	.
!	!	!	!	!LO:TX:t=P:problem:mixed beam	!	!	!	!	!	!	!
8BB\	.	.	.	24dd/LL	.	8b\	.	.	.	.	.
.	.	.	.	24d/	.	.	.	.	.	.	.
.	.	.	.	24e/JJ	.	.	.	.	.	.	.
8D\J	.	.	.	24f/LL	.	8r	.	.	.	.	.
.	.	.	.	24e/	.	.	.	.	.	.	.
.	.	.	.	24d/JJ	.	.	.	.	.	.	.
!	!	!	!	!LO:LB:g=original	!	!	!	!	!	!	!
=36	=36	=36	=36	=36	=36	=36	=36	=36	=36	=36	=36
!	!	!	!	!LO:TX:t=P:problem:mixed beam	!	!	!	!	!	!	!
8GG#X\L	.	8G#X/	.	24B/LL	.	8ddd\	.	2ryy	2ryy	2ryy	2ryy
.	.	.	.	24b\	.	.	.	.	.	.	.
.	.	.	.	24cc\JJ	.	.	.	.	.	.	.
8F\	.	8r	.	24b/LL	.	4dd\	.	.	.	.	.
.	.	.	.	24a/	.	.	.	.	.	.	.
.	.	.	.	24g#X/JJ	.	.	.	.	.	.	.
8BB\	.	8B/	.	24r	.	.	.	.	.	.	.
.	.	.	.	24dd\LL	.	.	.	.	.	.	.
.	.	.	.	24cc\JJ	.	.	.	.	.	.	.
8F\J	.	8r	.	24b\LL	.	8dd\	.	.	.	.	.
.	.	.	.	24a\	.	.	.	.	.	.	.
.	.	.	.	24g#X\JJ	.	.	.	.	.	.	.
!	!	!LO:LB:g=original	!	!	!	!	!	!	!	!	!
=37	=37	=37	=37	=37	=37	=37	=37	=37	=37	=37	=37
!	!	!	!	!LO:TX:t=P:problem:mixed beam	!	!	!	!	!	!	!
8D\L	.	8d\	.	24B/LL	.	8.dd\L	.	2ryy	2ryy	2ryy	2ryy
.	.	.	.	24b\	.	.	.	.	.	.	.
.	.	.	.	24cc\JJ	.	.	.	.	.	.	.
8F\	.	8r	.	24b/LL	.	.	.	.	.	.	.
.	.	.	.	24a/	.	.	.	.	.	.	.
.	.	.	.	.	.	16cc\Jk	.	.	.	.	.
.	.	.	.	24g#X/JJ	.	.	.	.	.	.	.
8BB\	.	8G#X/	.	24g#/LL	.	8b\	.	.	.	.	.
.	.	.	.	24d/	.	.	.	.	.	.	.
.	.	.	.	24e/JJ	.	.	.	.	.	.	.
8F\J	.	8r	.	24d/LL	.	8r	.	.	.	.	.
.	.	.	.	24c/	.	.	.	.	.	.	.
.	.	.	.	24B/JJ	.	.	.	.	.	.	.
=38	=38	=38	=38	=38	=38	=38	=38	=38	=38	=38	=38
4GG#X/	.	8G#X/	.	4r	.	16b\LL	.	2ryy	2ryy	2ryy	2ryy
.	.	.	.	.	.	16cc\	.	.	.	.	.
.	.	8r	.	.	.	16dd\	.	.	.	.	.
.	.	.	.	.	.	16ee\JJ	.	.	.	.	.
8r	.	4r	.	8r	.	16ffn\LL	.	.	.	.	.
.	.	.	.	.	.	16dd\	.	.	.	.	.
8G\	.	.	.	24fn/LL	.	16cc\	.	.	.	.	.
.	.	.	.	24e/	.	.	.	.	.	.	.
.	.	.	.	.	.	16b\JJ	.	.	.	.	.
.	.	.	.	24d/JJ	.	.	.	.	.	.	.
!LO:LB:g=original	!	!	!	!	!	!	!	!	!	!	!
=39	=39	=39	=39	=39	=39	=39	=39	=39	=39	=39	=39
4A\	.	8A/	.	4a/	.	16cc\LL	.	2ryy	2ryy	2ryy	2ryy
.	.	.	.	.	.	16b\	.	.	.	.	.
.	.	8r	.	.	.	16cc\	.	.	.	.	.
.	.	.	.	.	.	16dd\JJ	.	.	.	.	.
4r	.	4r	.	16r	.	16ee\LL	.	.	.	.	.
.	.	.	.	16e/LL	.	16cc\	.	.	.	.	.
.	.	.	.	16d/	.	16b\	.	.	.	.	.
.	.	.	.	16c/JJ	.	16a\JJ	.	.	.	.	.
=40	=40	=40	=40	=40	=40	=40	=40	=40	=40	=40	=40
!LO:TX:t=P:problem:mixed beam	!LO:DY:rj:t=f	!	!	!	!	!	!	!	!	!	!
8AA/L	f	8r	f	16A/LL	.	8aa\	f	2ryy	2ryy	2ryy	2ryy
.	.	.	.	16c/	.	.	.	.	.	.	.
8A\J	.	4cc\	.	16e/	.	4ee\	.	.	.	.	.
.	.	.	.	16c/JJ	.	.	.	.	.	.	.
8C\L	.	.	.	16A/LL	.	.	.	.	.	.	.
.	.	.	.	16c/	.	.	.	.	.	.	.
8A\J	.	8cc\	.	16e/	.	8ee\	.	.	.	.	.
.	.	.	.	16c/JJ	.	.	.	.	.	.	.
!	!	!	!	!	!	!LO:LB:g=original	!	!	!	!	!
=41	=41	=41	=41	=41	=41	=41	=41	=41	=41	=41	=41
!	!	!	!	!	!LO:DY:rj	!	!	!	!	!	!
8E\L	p	4cc\	p	16A/LL	p	8.ee\L	p	2ryy	2ryy	2ryy	2ryy
.	.	.	.	16c/	.	.	.	.	.	.	.
8A\	.	.	.	16e/	.	.	.	.	.	.	.
.	.	.	.	16A/JJ	.	16dd\Jk	.	.	.	.	.
8C\	.	4r	.	16A/LL	.	8cc\	.	.	.	.	.
.	.	.	.	16c/	.	.	.	.	.	.	.
8A\J	.	.	.	16e/	.	8r	.	.	.	.	.
.	.	.	.	16c/JJ	.	.	.	.	.	.	.
!	!	!	!	!LO:LB:g=original	!	!	!	!	!	!	!
=42	=42	=42	=42	=42	=42	=42	=42	=42	=42	=42	=42
!LO:TX:t=P:problem:mixed beam	!LO:DY:rj:t=f	!	!	!	!	!	!	!	!	!	!
8AA/L	f	8r	.	16d/LL	f	8aa\	f	2ryy	2ryy	2ryy	2ryy
.	.	.	.	16f/	.	.	.	.	.	.	.
8A\J	.	4dd\	.	16a/	.	4ff\	.	.	.	.	.
.	.	.	.	16f/JJ	.	.	.	.	.	.	.
8D\L	.	.	.	16d/LL	.	.	.	.	.	.	.
.	.	.	.	16f/	.	.	.	.	.	.	.
8A\J	.	8dd\	.	16a/	.	8ff\	.	.	.	.	.
.	.	.	.	16f/JJ	.	.	.	.	.	.	.
=43	=43	=43	=43	=43	=43	=43	=43	=43	=43	=43	=43
8F\L	p	4dd\	p	16d/LL	p	8.ff\L	p	2ryy	2ryy	2ryy	2ryy
.	.	.	.	16f/	.	.	.	.	.	.	.
8A\	.	.	.	16a/	.	.	.	.	.	.	.
.	.	.	.	16f/JJ	.	16ee\Jk	.	.	.	.	.
.	.	.	.	.	.	8qqee/	.	.	.	.	.
8D\	.	4r	.	16d/LL	.	8dd\	.	.	.	.	.
.	.	.	.	16f/	.	.	.	.	.	.	.
8A\J	.	.	.	16a/	.	8r	.	.	.	.	.
.	.	.	.	16f/JJ	.	.	.	.	.	.	.
!	!	!LO:LB:g=original	!	!	!	!	!	!	!	!	!
=44	=44	=44	=44	=44	=44	=44	=44	=44	=44	=44	=44
!LO:TX:t=P:problem:mixed beam	!LO:DY:rj:t=f	!	!	!	!	!	!	!	!	!	!
8AA/L	f	8cc\	f	16c/LL	f	8aa\	f	2ryy	2ryy	2ryy	2ryy
.	.	.	.	16e/	.	.	.	.	.	.	.
8A\J	.	4cc\	.	16a/	.	4ee\	.	.	.	.	.
.	.	.	.	16e/JJ	.	.	.	.	.	.	.
8C\L	.	.	.	16c/LL	.	.	.	.	.	.	.
.	.	.	.	16e/	.	.	.	.	.	.	.
8A\J	.	8cc\	.	16cc/	.	8ee\	.	.	.	.	.
.	.	.	.	16e/JJ	.	.	.	.	.	.	.
=45	=45	=45	=45	=45	=45	=45	=45	=45	=45	=45	=45
!	!	!	!	!	!LO:DY:t=pia&colon;	!	!	!	!	!	!
8BB\L	p	4f#X\	p	8ee\L	p	8.ee\L	p	2ryy	2ryy	2ryy	2ryy
8A\	.	.	.	8dd#X\J	.	.	.	.	.	.	.
.	.	.	.	.	.	16dd#X\Jk	.	.	.	.	.
8B\	.	4r	.	4ddn\	.	4ddn\	.	.	.	.	.
8G#X\J	.	.	.	.	.	.	.	.	.	.	.
=46	=46	=46	=46	=46	=46	=46	=46	=46	=46	=46	=46
.	.	.	.	8qqdd/	.	8qqdd/	.	.	.	.	.
8A\	.	8e\	.	8cc\L	.	8cc\L	.	2ryy	2ryy	2ryy	2ryy
8r	.	8r	.	16b\L	.	16b\L	.	.	.	.	.
.	.	.	.	16a\JJ	.	16a\JJ	.	.	.	.	.
!	!	!	!	!LO:TX:t=P:problem:mixed beam	!	!	!	!	!	!	!
8D\	.	8d\	.	8ff\L	.	8ff\L	.	.	.	.	.
8r	.	8r	.	8a/J	.	8a\J	.	.	.	.	.
!LO:LB:g=original	!	!	!	!	!	!	!	!	!	!	!
=47	=47	=47	=47	=47	=47	=47	=47	=47	=47	=47	=47
4E\	.	(4c/	.	4a/	.	4a/	.	2ryy	2ryy	2ryy	2ryy
4EE/	.	4B/)	.	4g#X/	.	4g#X/	.	.	.	.	.
=48	=48	=48	=48	=48	=48	=48	=48	=48	=48	=48	=48
!LO:TX:t=P:problem:mixed beam	!	!LO:TX:a:t=1	!	!	!	!	!	!	!	!	!
8C/L	.	2r	.	24e/LL	.	4r	.	2ryy	2ryy	2ryy	2ryy
.	.	.	.	24g/	.	.	.	.	.	.	.
.	.	.	.	24f/JJ	.	.	.	.	.	.	.
8c\	.	.	.	24e/LL	.	.	.	.	.	.	.
.	.	.	.	24f/	.	.	.	.	.	.	.
.	.	.	.	24d/JJ	.	.	.	.	.	.	.
8E\	.	.	.	24c/LL	.	8r	.	.	.	.	.
.	.	.	.	24g/	.	.	.	.	.	.	.
.	.	.	.	24f/JJ	.	.	.	.	.	.	.
8c\J	.	.	.	24e/LL	.	8cc\	.	.	.	.	.
.	.	.	.	24f/	.	.	.	.	.	.	.
.	.	.	.	24d/JJ	.	.	.	.	.	.	.
!	!	!	!	!LO:LB:g=original	!	!	!	!	!	!	!
=49	=49	=49	=49	=49	=49	=49	=49	=49	=49	=49	=49
8G\L	.	4e\	.	4c/	.	(8cc\L	.	2ryy	2ryy	2ryy	2ryy
8c\	.	.	.	.	.	8b-X\J)	.	.	.	.	.
8E\	.	16r	.	16r	.	4b-\	.	.	.	.	.
.	.	16e\LL	.	16g/LL	.	.	.	.	.	.	.
8c\J	.	16e\	.	16g/	.	.	.	.	.	.	.
.	.	16e\JJ	.	16g/JJ	.	.	.	.	.	.	.
=50	=50	=50	=50	=50	=50	=50	=50	=50	=50	=50	=50
8C\L	.	4f\	.	(16f/LL	.	(16a\LL	.	2ryy	2ryy	2ryy	2ryy
.	.	.	.	16a/)	.	16cc\)	.	.	.	.	.
8c\	.	.	.	(16a/	.	(16cc\	.	.	.	.	.
.	.	.	.	16cc/JJ)	.	16ff\JJ)	.	.	.	.	.
8F\	.	4r	.	(16cc\LL	.	(16ff\LL	.	.	.	.	.
.	.	.	.	16ff\)	.	16aa\)	.	.	.	.	.
8c\J	.	.	.	(16ff\	.	(16aa\	.	.	.	.	.
.	.	.	.	16ee\JJ)	.	16gg\JJ)	.	.	.	.	.
!	!	!LO:LB:g=original	!	!	!	!LO:LB:g=original	!	!	!	!	!
=51	=51	=51	=51	=51	=51	=51	=51	=51	=51	=51	=51
!	!	!LO:TX:a:t=3	!	!	!	!	!	!	!	!	!
!	!	!LO:N:vis=0	!	!	!	!	!	!	!	!	!
8A\L	.	1r	.	(16ee\LL	.	(16gg\LL	.	2ryy	2ryy	2ryy	2ryy
.	.	.	.	16dd\)	.	16ff\)	.	.	.	.	.
8c\	.	.	.	(16dd\	.	(16ff\	.	.	.	.	.
.	.	.	.	16cc\JJ)	.	16ee\JJ)	.	.	.	.	.
8F\	.	.	.	(16cc\LL	.	(16ee\LL	.	.	.	.	.
.	.	.	.	16bn\)	.	16dd\)	.	.	.	.	.
8c\J	.	.	.	(16b\	.	(16dd\	.	.	.	.	.
.	.	.	.	16a\JJ)	.	16cc\JJ)	.	.	.	.	.
=52	=52	=52	=52	=52	=52	=52	=52	=52	=52	=52	=52
!LO:TX:t=P:problem:mixed beam	!	!	!	!	!	!	!	!	!	!	!
8GG/L	.	.	.	(16a/LL	.	(16cc\LL	.	2ryy	2ryy	2ryy	2ryy
.	.	.	.	16g/)	.	16bn\)	.	.	.	.	.
8G\J	.	.	.	(16g/	.	(16b\	.	.	.	.	.
.	.	.	.	16f/JJ)	.	16a\JJ)	.	.	.	.	.
!LO:TX:t=P:problem:mixed beam	!	!	!	!	!	!	!	!	!	!	!
8BB/L	.	.	.	16f/LL	.	(16a/LL	.	.	.	.	.
.	.	.	.	16e/	.	16g/)	.	.	.	.	.
8G\J	.	.	.	16e/	.	(16g/	.	.	.	.	.
.	.	.	.	16d/JJ	.	16f/JJ)	.	.	.	.	.
=53	=53	=53	=53	=53	=53	=53	=53	=53	=53	=53	=53
8C\L	.	2r	.	16d/LL	.	(16f/LL	.	2ryy	2ryy	2ryy	2ryy
.	.	.	.	16c/	.	16e/)	.	.	.	.	.
8D\	.	.	.	16c/	.	(16e/	.	.	.	.	.
.	.	.	.	16d/JJ	.	16f/JJ)	.	.	.	.	.
8E\	.	.	.	(16d/LL	.	(16f/LL	.	.	.	.	.
.	.	.	.	16e/)	.	16g/)	.	.	.	.	.
8F\J	.	.	.	(16e/	.	(16g/	.	.	.	.	.
.	.	.	.	16f/JJ)	.	16a/JJ)	.	.	.	.	.
=54	=54	=54	=54	=54	=54	=54	=54	=54	=54	=54	=54
!LO:TX:t=P:problem:mixed beam	!	!	!	!	!	!	!	!	!	!	!
8GG/L	.	8r	.	8d/L	.	8c/L	.	2ryy	2ryy	2ryy	2ryy
8G\	.	8G/	.	8c/J	.	8B/J	.	.	.	.	.
8D\	.	4G/	.	4g 4B/	.	4B/	.	.	.	.	.
8G\J	.	.	.	.	.	.	.	.	.	.	.
!LO:LB:g=original	!	!	!	!	!	!	!	!	!	!	!
=55	=55	=55	=55	=55	=55	=55	=55	=55	=55	=55	=55
*	*	*2\right	*	*	*	*	*	*	*	*	*
!LO:TX:t=P:problem:mixed beam	!	!	!	!	!	!	!	!	!	!	!
8GG/L	.	2f\	.	16r	.	8b\	.	2ryy	2ryy	2ryy	2ryy
.	.	.	.	16d/LL	.	.	.	.	.	.	.
8G\J	.	.	.	16f/	.	4b\	.	.	.	.	.
.	.	.	.	16d/JJ	.	.	.	.	.	.	.
!LO:TX:t=P:problem:mixed beam	!	!	!	!	!	!	!	!	!	!	!
8BB/L	.	.	.	16r	.	.	.	.	.	.	.
.	.	.	.	16d/LL	.	.	.	.	.	.	.
8G\J	.	.	.	16f/	.	8b\	.	.	.	.	.
.	.	.	.	16d/JJ	.	.	.	.	.	.	.
!	!	!	!	!LO:LB:g=original	!	!	!	!	!	!	!
=56	=56	=56	=56	=56	=56	=56	=56	=56	=56	=56	=56
8D\L	.	2f\	.	24G/LL	.	8.b\L	.	2ryy	2ryy	2ryy	2ryy
.	.	.	.	24B/	.	.	.	.	.	.	.
.	.	.	.	24c/JJ	.	.	.	.	.	.	.
8G\	.	.	.	24d/LL	.	.	.	.	.	.	.
.	.	.	.	24e/	.	.	.	.	.	.	.
.	.	.	.	.	.	32dd\LL	.	.	.	.	.
.	.	.	.	24f/JJ	.	.	.	.	.	.	.
.	.	.	.	.	.	32cc\JJJ	.	.	.	.	.
!	!	!	!	!LO:TX:t=P:problem:mixed beam	!	!	!	!	!	!	!
8BB\	.	.	.	24dd\LL	.	8b\	.	.	.	.	.
.	.	.	.	24d/	.	.	.	.	.	.	.
.	.	.	.	24e/JJ	.	.	.	.	.	.	.
8G\J	.	.	.	24f/LL	.	8r	.	.	.	.	.
.	.	.	.	24e/	.	.	.	.	.	.	.
.	.	.	.	24d/JJ	.	.	.	.	.	.	.
=57	=57	=57	=57	=57	=57	=57	=57	=57	=57	=57	=57
!LO:TX:t=P:problem:mixed beam	!	!	!	!	!	!	!	!	!	!	!
8GG/L	.	2e\	.	16r	.	8cc\	.	2ryy	2ryy	2ryy	2ryy
.	.	.	.	16e/LL	.	.	.	.	.	.	.
8G\J	.	.	.	16g/	.	4cc\	.	.	.	.	.
.	.	.	.	16e/JJ	.	.	.	.	.	.	.
8C\L	.	.	.	16r	.	.	.	.	.	.	.
.	.	.	.	16e/LL	.	.	.	.	.	.	.
8G\J	.	.	.	16g/	.	8cc\	.	.	.	.	.
.	.	.	.	16e/JJ	.	.	.	.	.	.	.
=58	=58	=58	=58	=58	=58	=58	=58	=58	=58	=58	=58
8E\L	.	2e\	.	24G/LL	.	8.cc\L	.	2ryy	2ryy	2ryy	2ryy
.	.	.	.	24c/	.	.	.	.	.	.	.
.	.	.	.	24d/JJ	.	.	.	.	.	.	.
8G\	.	.	.	24e/LL	.	.	.	.	.	.	.
.	.	.	.	24f/	.	.	.	.	.	.	.
.	.	.	.	.	.	32ee\LL	.	.	.	.	.
.	.	.	.	24g/JJ	.	.	.	.	.	.	.
.	.	.	.	.	.	32dd\JJJ	.	.	.	.	.
!	!	!	!	!LO:TX:t=P:problem:mixed beam	!	!	!	!	!	!	!
8C\	.	.	.	24cc\LL	.	8cc\	.	.	.	.	.
.	.	.	.	24e/	.	.	.	.	.	.	.
.	.	.	.	24f/JJ	.	.	.	.	.	.	.
8G\J	.	.	.	24e/LL	.	8r	.	.	.	.	.
.	.	.	.	24d/	.	.	.	.	.	.	.
.	.	.	.	24c/JJ	.	.	.	.	.	.	.
!	!	!	!	!	!	!LO:LB:g=original	!	!	!	!	!
=59	=59	=59	=59	=59	=59	=59	=59	=59	=59	=59	=59
!LO:TX:t=P:problem:mixed beam	!	!	!	!	!	!	!	!	!	!	!
8GG/L	.	2B/	.	16r	.	8dd\	.	2ryy	2ryy	2ryy	2ryy
.	.	.	.	16B/LL	.	.	.	.	.	.	.
8G\	.	.	.	16d/	.	4dd\	.	.	.	.	.
.	.	.	.	16B/JJ	.	.	.	.	.	.	.
8BB/	.	.	.	16r	.	.	.	.	.	.	.
.	.	.	.	16d/LL	.	.	.	.	.	.	.
8G\J	.	.	.	16f/	.	8dd\	.	.	.	.	.
.	.	.	.	16d/JJ	.	.	.	.	.	.	.
=60	=60	=60	=60	=60	=60	=60	=60	=60	=60	=60	=60
8D\L	.	2B/	.	24B/LL	.	8.dd\L	.	2ryy	2ryy	2ryy	2ryy
.	.	.	.	24d/	.	.	.	.	.	.	.
.	.	.	.	24e/JJ	.	.	.	.	.	.	.
8G\	.	.	.	24f/LL	.	.	.	.	.	.	.
.	.	.	.	24g/	.	.	.	.	.	.	.
.	.	.	.	.	.	32ff\LL	.	.	.	.	.
.	.	.	.	24a/JJ	.	.	.	.	.	.	.
.	.	.	.	.	.	32ee\JJJ	.	.	.	.	.
8BB\	.	.	.	24g/LL	.	8dd\	.	.	.	.	.
.	.	.	.	24a/	.	.	.	.	.	.	.
.	.	.	.	24g/JJ	.	.	.	.	.	.	.
8G\J	.	.	.	24f/LL	.	8r	.	.	.	.	.
.	.	.	.	24e/	.	.	.	.	.	.	.
.	.	.	.	24d/JJ	.	.	.	.	.	.	.
!	!	!	!	!LO:LB:g=original	!	!	!	!	!	!	!
=61	=61	=61	=61	=61	=61	=61	=61	=61	=61	=61	=61
!LO:TX:t=P:problem:mixed beam	!	!	!	!	!	!	!	!	!	!	!
8C/L	.	4r	.	8c/	.	24ee-X\LL	.	2ryy	2ryy	2ryy	2ryy
.	.	.	.	.	.	24gg\	.	.	.	.	.
.	.	.	.	.	.	24ff\JJ	.	.	.	.	.
8c\	.	.	.	4ee-X\	.	4ee-\	.	.	.	.	.
8A-X\	.	4a-X\	.	.	.	.	.	.	.	.	.
8c\J	.	.	.	8ee-\	.	8ee-\	.	.	.	.	.
=62	=62	=62	=62	=62	=62	=62	=62	=62	=62	=62	=62
!LO:TX:t=P:problem:mixed beam	!	!LO:SIC:v:s=4a-	!	!	!	!	!	!	!	!	!
8BB-X/L	.	4a\	.	24dd-X\LL	.	24dd-X\LL	.	2ryy	2ryy	2ryy	2ryy
.	.	.	.	24ff\	.	24ff\	.	.	.	.	.
.	.	.	.	24ee\JJ	.	24ee\JJ	.	.	.	.	.
8B-X\	.	.	.	4dd-\	.	4dd-\	.	.	.	.	.
8G\	.	4g\	.	.	.	.	.	.	.	.	.
8B-\J	.	.	.	8dd-\	.	8dd-\	.	.	.	.	.
!LO:LB:g=original	!	!LO:LB:g=original	!	!	!	!	!	!	!	!	!
=63	=63	=63	=63	=63	=63	=63	=63	=63	=63	=63	=63
!LO:TX:t=P:problem:mixed beam	!	!	!	!	!	!	!	!	!	!	!
8AA-X/L	.	4g\	.	24cc\LL	.	24cc\LL	.	2ryy	2ryy	2ryy	2ryy
.	.	.	.	24ee-X\	.	24ee-X\	.	.	.	.	.
.	.	.	.	24dd\JJ	.	24dd\JJ	.	.	.	.	.
!LO:SIC:v:s=8A-	!	!	!	!	!	!	!	!	!	!	!
8A\	.	.	.	24cc\LL	.	24cc\LL	.	.	.	.	.
.	.	.	.	24b\	.	24b\	.	.	.	.	.
.	.	.	.	24cc\JJ	.	24cc\JJ	.	.	.	.	.
8F\	.	4f\	.	16aa-X\LL	.	16aa-X\LL	.	.	.	.	.
.	.	.	.	16ff\	.	16ff\	.	.	.	.	.
!LO:SIC:v:s=8A-	!	!	!	!	!	!	!	!	!	!	!
8A\J	.	.	.	16ee-X\	.	16ee-X\	.	.	.	.	.
.	.	.	.	16dd\JJ	.	16dd\JJ	.	.	.	.	.
=64	=64	=64	=64	=64	=64	=64	=64	=64	=64	=64	=64
!LO:TX:t=P:problem:mixed beam	!	!	!	!	!	!	!	!	!	!	!
8GG/L	.	4g\	.	8cc\L	.	8cc\L	.	2ryy	2ryy	2ryy	2ryy
8G\J	.	.	.	8bn\J	.	8bn\J	.	.	.	.	.
!LO:TX:t=P:problem:mixed beam	!	!	!	!	!	!	!	!	!	!	!
8BBn/L	.	4r	.	4r	.	4r	.	.	.	.	.
8G\J	.	.	.	.	.	.	.	.	.	.	.
=65	=65	=65	=65	=65	=65	=65	=65	=65	=65	=65	=65
!LO:TX:t=P:problem:mixed beam	!	!	!	!	!	!	!	!	!	!	!
8C/L	.	4en\	.	16r	.	8g/	.	2ryy	2ryy	2ryy	2ryy
.	.	.	.	16en/LL	.	.	.	.	.	.	.
8c\	.	.	.	16c/	.	4g/	.	.	.	.	.
.	.	.	.	16e/JJ	.	.	.	.	.	.	.
8Cn/	.	4r	.	16r	.	.	.	.	.	.	.
.	.	.	.	16c/LL	.	.	.	.	.	.	.
8c\J	.	.	.	16e/	.	8g/	.	.	.	.	.
.	.	.	.	16g/JJ	.	.	.	.	.	.	.
=66	=66	=66	=66	=66	=66	=66	=66	=66	=66	=66	=66
!	!	!LO:TX:a:t=3	!	!	!	!LO:TX:t=P:problem:mixed beam	!	!	!	!	!
!	!	!LO:N:vis=0	!	!	!	!	!	!	!	!	!
8G\L	.	1r	.	4e/	.	24g/LL	.	2ryy	2ryy	2ryy	2ryy
.	.	.	.	.	.	24een\	.	.	.	.	.
.	.	.	.	.	.	24dd\JJ	.	.	.	.	.
8c\	.	.	.	.	.	24cc\LL	.	.	.	.	.
.	.	.	.	.	.	24bn\	.	.	.	.	.
.	.	.	.	.	.	24a\JJ	.	.	.	.	.
8E\	.	.	.	16r	.	8g/	.	.	.	.	.
.	.	.	.	16c/LL	.	.	.	.	.	.	.
8c\J	.	.	.	16e/	.	8r	.	.	.	.	.
.	.	.	.	16g/JJ	.	.	.	.	.	.	.
!	!	!	!	!	!	!LO:LB:g=original	!	!	!	!	!
=67	=67	=67	=67	=67	=67	=67	=67	=67	=67	=67	=67
!LO:TX:t=P:problem:mixed beam	!	!	!	!	!	!	!	!	!	!	!
8GG/L	.	.	.	(16b\LL	.	8ff\	.	2ryy	2ryy	2ryy	2ryy
.	.	.	.	16dd\JJ)	.	.	.	.	.	.	.
8G\	.	.	.	4dd\	.	4ff\	.	.	.	.	.
8BB/	.	.	.	.	.	.	.	.	.	.	.
8G\J	.	.	.	(16.dd\LL	.	16.ff\LL	.	.	.	.	.
.	.	.	.	32ee\JJk)	.	32gg\JJk	.	.	.	.	.
=68	=68	=68	=68	=68	=68	=68	=68	=68	=68	=68	=68
.	.	.	.	.	.	8qqgg/	.	.	.	.	.
8D\L	.	2r	.	16dd\LL	.	8ff\	.	2ryy	2ryy	2ryy	2ryy
.	.	.	.	16cc\	.	.	.	.	.	.	.
8G\	.	.	.	16b\	.	4ee\	.	.	.	.	.
.	.	.	.	16a\JJ	.	.	.	.	.	.	.
8BB\	.	.	.	8g/L	.	.	.	.	.	.	.
8G\J	.	.	.	8f/J	.	8dd\	.	.	.	.	.
!	!	!	!	!LO:LB:g=original	!	!	!	!	!	!	!
=69	=69	=69	=69	=69	=69	=69	=69	=69	=69	=69	=69
8C\L	.	4G/	.	16r	.	24e/LL	.	2ryy	2ryy	2ryy	2ryy
.	.	.	.	.	.	24f/	.	.	.	.	.
.	.	.	.	16e/LL|	.	.	.	.	.	.	.
.	.	.	.	.	.	24g/JJ	.	.	.	.	.
8c\	.	.	.	(16c/	.	4g/	.	.	.	.	.
.	.	.	.	16e/JJ)	.	.	.	.	.	.	.
8E\	.	4r	.	16r	.	.	.	.	.	.	.
.	.	.	.	16g/LL|	.	.	.	.	.	.	.
8c\J	.	.	.	(16e/	.	8g/	.	.	.	.	.
.	.	.	.	16g/JJ)	.	.	.	.	.	.	.
=70	=70	=70	=70	=70	=70	=70	=70	=70	=70	=70	=70
!	!	!LO:TX:a:t=3	!	!	!	!LO:TX:t=P:problem:mixed beam	!	!	!	!	!
!	!	!LO:N:vis=0	!	!	!	!	!	!	!	!	!
8G\L	.	1r	.	4e/	.	24g/LL	.	2ryy	2ryy	2ryy	2ryy
.	.	.	.	.	.	24ee\	.	.	.	.	.
.	.	.	.	.	.	24dd\JJ	.	.	.	.	.
8c\	.	.	.	.	.	24cc\LL	.	.	.	.	.
.	.	.	.	.	.	24b\	.	.	.	.	.
.	.	.	.	.	.	24a\JJ	.	.	.	.	.
8E\	.	.	.	16r	.	8g/	.	.	.	.	.
.	.	.	.	16g/LL|	.	.	.	.	.	.	.
8c\J	.	.	.	(16e/	.	8r	.	.	.	.	.
.	.	.	.	16g/JJ)	.	.	.	.	.	.	.
!LO:LB:g=original	!	!	!	!	!	!	!	!	!	!	!
=71	=71	=71	=71	=71	=71	=71	=71	=71	=71	=71	=71
!LO:TX:t=P:problem:mixed beam	!	!	!	!	!	!	!	!	!	!	!
8GG/L	.	.	.	24B/LL	.	8f/	.	2ryy	2ryy	2ryy	2ryy
.	.	.	.	24c/	.	.	.	.	.	.	.
.	.	.	.	24d/JJ	.	.	.	.	.	.	.
8G\J	.	.	.	4d/	.	4f/	.	.	.	.	.
8BB\L	.	.	.	.	.	.	.	.	.	.	.
8G\J	.	.	.	16.d/LL	.	16.f/LL	.	.	.	.	.
.	.	.	.	32e/JJk	.	32g/JJk	.	.	.	.	.
=72	=72	=72	=72	=72	=72	=72	=72	=72	=72	=72	=72
.	.	.	.	.	.	8qqg/	.	.	.	.	.
8D\L	.	2r	.	8d/L	.	8f/	.	2ryy	2ryy	2ryy	2ryy
8G\J	.	.	.	8c/J	.	4e/	.	.	.	.	.
8BB\L	.	.	.	8G/L	.	.	.	.	.	.	.
8G\J	.	.	.	8G/J	.	8d/	.	.	.	.	.
=73	=73	=73	=73	=73	=73	=73	=73	=73	=73	=73	=73
!LO:TX:t=P:problem:mixed beam	!	!	!	!	!	!	!	!	!	!	!
8C/L	.	8E/	.	8G/	.	8c/	.	2ryy	2ryy	2ryy	2ryy
8c\J	.	8r	.	8r	.	8r	.	.	.	.	.
8E\L	.	8c\	.	8g/	.	8g/	.	.	.	.	.
8c\J	.	8r	.	8r	.	8r	.	.	.	.	.
=74	=74	=74	=74	=74	=74	=74	=74	=74	=74	=74	=74
8F\L	.	8c\	.	8a/	.	8a\	.	2ryy	2ryy	2ryy	2ryy
8c\	.	8r	.	8r	.	8r	.	.	.	.	.
8G\	.	8f\	.	8b\	.	8b\	.	.	.	.	.
8c\J	.	8r	.	8r	.	8r	.	.	.	.	.
!	!	!LO:LB:g=original	!	!	!	!	!	!	!	!	!
=75	=75	=75	=75	=75	=75	=75	=75	=75	=75	=75	=75
8A\L	.	8e\	.	8cc\	.	8cc\	.	2ryy	2ryy	2ryy	2ryy
8c\J	.	8r	.	8r	.	8r	.	.	.	.	.
8B\L	.	8g\	.	8dd\	.	8dd\	.	.	.	.	.
16A\L	.	8r	.	8r	.	8r	.	.	.	.	.
16G\JJ	.	.	.	.	.	.	.	.	.	.	.
!	!	!	!	!	!	!LO:LB:g=original	!	!	!	!	!
=76	=76	=76	=76	=76	=76	=76	=76	=76	=76	=76	=76
4c\	.	4g\	.	24ee\LL	.	24ee\LL	.	2ryy	2ryy	2ryy	2ryy
.	.	.	.	24gg\	.	24gg\	.	.	.	.	.
.	.	.	.	24ff\JJ	.	24ff\JJ	.	.	.	.	.
.	.	.	.	24ee\LL	.	24ee\LL	.	.	.	.	.
.	.	.	.	24dd\	.	24dd\	.	.	.	.	.
.	.	.	.	24cc\JJ	.	24cc\JJ	.	.	.	.	.
4r	.	4r	.	24b/LL	.	24b/LL	.	.	.	.	.
.	.	.	.	24a/	.	24a/	.	.	.	.	.
.	.	.	.	24g/JJ	.	24g/JJ	.	.	.	.	.
.	.	.	.	24f/LL	.	24f/LL	.	.	.	.	.
.	.	.	.	24e/	.	24e/	.	.	.	.	.
.	.	.	.	24d/JJ	.	24d/JJ	.	.	.	.	.
!	!	!	!	!LO:LB:g=original	!	!	!	!	!	!	!
=77	=77	=77	=77	=77	=77	=77	=77	=77	=77	=77	=77
8r	.	8r	.	8.c/L	.	8.c/L	.	2ryy	2ryy	2ryy	2ryy
8E\L	.	16G/LL	.	.	.	.	.	.	.	.	.
.	.	16c/JJ	.	16d/Jk	.	16d/Jk	.	.	.	.	.
8F\	.	8c/L	.	4d/	.	4d/	.	.	.	.	.
8G\J	.	8B/J	.	.	.	.	.	.	.	.	.
=78	=78	=78	=78	=78	=78	=78	=78	=78	=78	=78	=78
!	!	!	!	!LO:TX:a:t=1	!	!	!	!	!	!	!
4c\	.	4e\	.	2r	.	(24gg\LL	.	2ryy	2ryy	2ryy	2ryy
.	.	.	.	.	.	24ccc\)	.	.	.	.	.
.	.	.	.	.	.	24bb\JJ	.	.	.	.	.
.	.	.	.	.	.	24aa\LL	.	.	.	.	.
.	.	.	.	.	.	(24gg\	.	.	.	.	.
.	.	.	.	.	.	24ff\JJ)	.	.	.	.	.
4r	.	4r	.	.	.	24ee\LL	.	.	.	.	.
.	.	.	.	.	.	(24dd\	.	.	.	.	.
.	.	.	.	.	.	24cc#X\JJ)	.	.	.	.	.
.	.	.	.	.	.	24dd\LL	.	.	.	.	.
.	.	.	.	.	.	24ff\	.	.	.	.	.
.	.	.	.	.	.	24aa\JJ	.	.	.	.	.
!LO:LB:g=original	!	!	!	!	!	!	!	!	!	!	!
=79	=79	=79	=79	=79	=79	=79	=79	=79	=79	=79	=79
8r	.	8r	.	8.a\L	.	8.a\L	.	2ryy	2ryy	2ryy	2ryy
!LO:TX:t=P:problem:mixed beam	!	!	!	!	!	!	!	!	!	!	!
8F\L	.	8f\L	.	.	.	.	.	.	.	.	.
.	.	.	.	16dd\Jk	.	32ff\LL	.	.	.	.	.
.	.	.	.	.	.	32dd\JJJ	.	.	.	.	.
.	.	.	.	.	.	8qqee/	.	.	.	.	.
8G\	.	8g\	.	8cc\L	.	4dd\	.	.	.	.	.
8GG/J	.	8g\J	.	8b\J	.	.	.	.	.	.	.
!	!	!	!	!	!	!LO:LB:g=original	!	!	!	!	!
=80	=80	=80	=80	=80	=80	=80	=80	=80	=80	=80	=80
8C\L	.	4g\	.	4e/	.	4cc\	.	2ryy	2ryy	2ryy	2ryy
8c\	.	.	.	.	.	.	.	.	.	.	.
8E\	.	4r	.	8r	.	8r	.	.	.	.	.
8c\J	.	.	.	8e/	.	8cc\	.	.	.	.	.
=81	=81	=81	=81	=81	=81	=81	=81	=81	=81	=81	=81
*	*	*	*	*	*	*tuplet	*	*	*	*	*
!	!	!LO:TX:a:t=1	!	!	!	!LO:TUP:a:problem:klamra łukowa	!	!	!	!	!
8G\L	.	2r	.	8f/L	.	24b\LL	.	2ryy	2ryy	2ryy	2ryy
.	.	.	.	.	.	24cc\	.	.	.	.	.
.	.	.	.	.	.	24dd\J	.	.	.	.	.
8c\	.	.	.	8e/J	.	8cc\J	.	.	.	.	.
8E\	.	.	.	8r	.	8r	.	.	.	.	.
8c\J	.	.	.	8ee\	.	8gg\	.	.	.	.	.
!	!	!LO:LB:g=original	!	!	!	!	!	!	!	!	!
=82	=82	=82	=82	=82	=82	=82	=82	=82	=82	=82	=82
8C\L	.	4g\	.	32ee\LLL	.	32gg\LLL	.	2ryy	2ryy	2ryy	2ryy
.	.	.	.	(32dd\	.	32ff\	.	.	.	.	.
.	.	.	.	32cc\	.	32ee\	.	.	.	.	.
.	.	.	.	32dd\JJ)	.	32ff\JJ	.	.	.	.	.
8c\	.	.	.	8cc\J	.	8ee\J	.	.	.	.	.
8E\	.	4r	.	8r	.	8r	.	.	.	.	.
8c\J	.	.	.	8e/	.	8cc\	.	.	.	.	.
=83	=83	=83	=83	=83	=83	=83	=83	=83	=83	=83	=83
!	!	!LO:TX:a:t=1	!	!	!	!LO:TUP:a:problem:klamra łukowa	!	!	!	!	!
8G\L	.	2r	.	8f/L	.	24b\LL	.	2ryy	2ryy	2ryy	2ryy
.	.	.	.	.	.	24cc\	.	.	.	.	.
.	.	.	.	.	.	24dd\J	.	.	.	.	.
8c\	.	.	.	8e/J	.	8cc\J	.	.	.	.	.
8E\	.	.	.	8r	.	8r	.	.	.	.	.
8c\J	.	.	.	8e/	.	8g/	.	.	.	.	.
=84	=84	=84	=84	=84	=84	=84	=84	=84	=84	=84	=84
8C\L	.	8G/	.	32g/LLL	.	32g/LLL	.	2ryy	2ryy	2ryy	2ryy
.	.	.	.	32f/	.	32f/	.	.	.	.	.
.	.	.	.	32e/	.	32e/	.	.	.	.	.
.	.	.	.	32f/JJ	.	32f/JJ	.	.	.	.	.
8c\	.	8r	.	8e/J	.	8e/J	.	.	.	.	.
8G\	.	8c\	.	8e/	.	8cc 8e/	.	.	.	.	.
8c\J	.	8r	.	8r	.	8r	.	.	.	.	.
!	!	!	!	!LO:LB:g=original	!	!LO:LB:g=original	!	!	!	!	!
=85	=85	=85	=85	=85	=85	=85	=85	=85	=85	=85	=85
4C/	.	4c\	.	4e/	.	4cc 4e/	.	2ryy	2ryy	2ryy	2ryy
!LO:TX:a:t=54	!	!LO:TX:a:t=54:problem:po kresce taktowej	!	!LO:TX:a:t=54&colon;:problem:po kresce taktowej	!	!LO:TX:a:t=54&colon;:po kresce taktowej	!	!	!	!	!
4r	.	4r	.	4r	.	4r	.	.	.	.	.
==:|!|:	==:|!|:	==:|!|:	==:|!|:	==:|!|:	==:|!|:	==:|!|:	==:|!|:	==:|!|:	==:|!|:	==:|!|:	==:|!|:
*-	*-	*-	*-	*-	*-	*-	*-	*-	*-	*-	*-
!!!system-decoration: [g1][g2][g3]
!!!RDF**dynam: p = "p:"
!!!RDF**dynam: f = "for"
!!!AIN: 1 bass 2 empty 2 oboe 1 viola 2 violn
!!!ENC: Marta Lawrence
!!!END: 2020-11=26
!!!ENC: Marta Chmielewska
!!!END: 2020-06-12
!!!RDF**kern: | = vertical stroke
